third_party/noto/noto_2/emoji_u1f4ed.svg

<svg enable-background="new 0 0 128 128" viewBox="0 0 128 128" xmlns="http://www.w3.org/2000/svg"><linearGradient id="g" x1="63.75" x2="63.75" y1="92.167" y2="124.84" gradientUnits="userSpaceOnUse"><stop stop-color="#757575" offset=".2748"/><stop stop-color="#BDBDBD" offset=".9927"/></linearGradient><rect x="54.75" y="84" width="18" height="40" fill="url(#g)"/><g opacity=".2"><path d="m69.75 87v34h-12v-34h12m3-3h-18v40h18v-40z" fill="#444"/></g><linearGradient id="f" x1="76.094" x2="76.094" y1="23.5" y2="90.394" gradientUnits="userSpaceOnUse"><stop stop-color="#64B5F6" offset="0"/><stop stop-color="#2196F3" offset=".6645"/></linearGradient><path d="m123.95 95.96h-95.71v-72h69.72c14.36 0 26 11.64 26 26v46z" fill="url(#f)"/><linearGradient id="e" x1="7.7348" x2="65.266" y1="59.957" y2="59.957" gradientUnits="userSpaceOnUse"><stop stop-color="#607D8B" offset="0"/><stop stop-color="#4C636E" offset=".422"/><stop stop-color="#33424A" offset="1"/></linearGradient><path d="M48.78,95.96H4V46.35c0-12.36,10.02-22.39,22.39-22.39h0c12.36,0,22.39,10.02,22.39,22.39 V95.96z" fill="url(#e)"/><linearGradient id="d" x1="4" x2="48.896" y1="92.957" y2="92.957" gradientUnits="userSpaceOnUse"><stop stop-color="#64B5F6" offset="0"/><stop stop-color="#2196F3" offset=".6645"/></linearGradient><rect x="4" y="89.96" width="44.9" height="6" fill="url(#d)"/><linearGradient id="c" x1="76.094" x2="76.094" y1="23.5" y2="90.394" gradientUnits="userSpaceOnUse"><stop stop-color="#64B5F6" offset="0"/><stop stop-color="#2196F3" offset=".6645"/></linearGradient><path d="m97.95 23.96h-69.71v0.08c11.5 0.94 20.54 10.56 20.54 22.31v43.61h0.12v6h75.05v-46c0-14.36-11.64-26-26-26z" fill="url(#c)"/><g opacity=".2"><path d="m97.95 26.96c12.68 0 23 10.32 23 23v43h-113.95v-46.61c0-10.69 8.7-19.39 19.39-19.39 0.49 0 1.01 0.02 1.6 0.07 0.08 0.01 0.16 0.01 0.24 0.01 0.24 0 0.47-0.03 0.7-0.08h69.02m0-3h-69.71v0.08c-0.61-0.05-1.22-0.08-1.85-0.08-12.37 0-22.39 10.02-22.39 22.39v49.61h119.95v-46c0-14.36-11.64-26-26-26z" fill="#444"/></g><linearGradient id="b" x1="75.361" x2="75.361" y1="15.5" y2="67.502" gradientTransform="matrix(0 1 -1 0 126 -6)" gradientUnits="userSpaceOnUse"><stop stop-color="#EF5350" offset=".2273"/><stop stop-color="#E53935" offset=".7827"/></linearGradient><path d="m118.76 78.39v-18.06c0-3.31-2.69-6-6-6h-3.76c-0.18 0-0.36 0.01-0.53 0.03h-42.56c-1.37 0-2.49 1.11-2.49 2.49v5.02c0 1.37 1.11 2.49 2.49 2.49h37.09v14.04c0 3.31 2.69 6 6 6h3.76c3.31-0.01 6-2.69 6-6.01z" fill="url(#b)"/><g opacity=".2"><path d="m112.76 56.33c2.21 0 4 1.79 4 4v18.07c0 2.21-1.79 4-4 4h-3.76c-2.21 0-4-1.79-4-4v-14.05c0-1.1-0.9-2-2-2h-37.09c-0.27 0-0.49-0.22-0.49-0.49v-5.02c0-0.27 0.22-0.49 0.49-0.49h42.56c0.06 0 0.12 0 0.18-0.01 0.12-0.01 0.24-0.02 0.36-0.02h3.75m0-1.99h-3.76c-0.18 0-0.36 0.01-0.53 0.03h-42.56c-1.37 0-2.49 1.11-2.49 2.49v5.02c0 1.37 1.11 2.49 2.49 2.49h37.09v14.04c0 3.31 2.69 6 6 6h3.76c3.31 0 6-2.69 6-6v-18.07c0-3.32-2.69-6-6-6z" fill="#444"/></g><radialGradient id="a" cx="63.854" cy="56.168" r="14.929" gradientUnits="userSpaceOnUse"><stop stop-color="#ECEFF1" offset="0"/><stop stop-color="#B0BEC5" offset=".6718"/></radialGradient><circle cx="66.85" cy="59.42" r="9" fill="url(#a)"/><g opacity=".2"><path d="m66.85 52.42c3.86 0 7 3.14 7 7s-3.14 7-7 7-7-3.14-7-7 3.14-7 7-7m0-2c-4.97 0-9 4.03-9 9s4.03 9 9 9 9-4.03 9-9-4.03-9-9-9z" fill="#444"/></g></svg>

<svg width="128" height="128" style="enable-background:new 0 0 128 128;" xmlns="http://www.w3.org/2000/svg" xmlns:xlink="http://www.w3.org/1999/xlink">
  <g id="Layer_2">
    <linearGradient id="SVGID_1_" gradientUnits="userSpaceOnUse" x1="63.75" x2="63.75" y1="92.1667" y2="124.836">
      <stop offset="0.2748" style="stop-color:#757575"/>
      <stop offset="0.9927" style="stop-color:#BDBDBD"/>
    </linearGradient>
    <rect height="40" style="fill:url(#SVGID_1_);" width="18" x="54.75" y="84"/>
    <g style="opacity:0.2;">
      <path d="M69.75,87v34h-12V87H69.75 M72.75,84h-18v40h18V84L72.75,84z" style="fill:#444444;"/>
    </g>
    <g>
      <linearGradient id="SVGID_2_" gradientUnits="userSpaceOnUse" x1="76.0935" x2="76.0935" y1="23.5" y2="90.394">
        <stop offset="0" style="stop-color:#64B5F6"/>
        <stop offset="0.6645" style="stop-color:#2196F3"/>
      </linearGradient>
      <path d="M123.95,95.96H28.24v-72h69.72c14.36,0,26,11.64,26,26V95.96z" style="fill:url(#SVGID_2_);"/>
    </g>
    <g>
      <g>
        <linearGradient id="SVGID_3_" gradientUnits="userSpaceOnUse" x1="7.7348" x2="65.2656" y1="59.9574" y2="59.9574">
          <stop offset="0" style="stop-color:#607D8B"/>
          <stop offset="0.422" style="stop-color:#4C636E"/>
          <stop offset="1" style="stop-color:#33424A"/>
        </linearGradient>
        <path d="M48.78,95.96H4V46.35c0-12.36,10.02-22.39,22.39-22.39h0c12.36,0,22.39,10.02,22.39,22.39 V95.96z" style="fill:url(#SVGID_3_);"/>
      </g>
      <linearGradient id="SVGID_5_" gradientUnits="userSpaceOnUse" x1="4" x2="48.8961" y1="92.9574" y2="92.9574">
        <stop offset="0" style="stop-color:#64B5F6"/>
        <stop offset="0.6645" style="stop-color:#2196F3"/>
      </linearGradient>
      <rect height="6" style="fill:url(#SVGID_5_);" width="44.9" x="4" y="89.96"/>
    </g>
    <g>
      <linearGradient id="SVGID_6_" gradientUnits="userSpaceOnUse" x1="76.0935" x2="76.0935" y1="23.5" y2="90.3941">
        <stop offset="0" style="stop-color:#64B5F6"/>
        <stop offset="0.6645" style="stop-color:#2196F3"/>
      </linearGradient>
      <path d="M97.95,23.96H28.24v0.08c11.5,0.94,20.54,10.56,20.54,22.31v43.61h0.12v6h75.05v-46 C123.95,35.6,112.31,23.96,97.95,23.96z" style="fill:url(#SVGID_6_);"/>
    </g>
    <g style="opacity:0.2;">
      <path d="M97.95,26.96c12.68,0,23,10.32,23,23v43H7V46.35c0-10.69,8.7-19.39,19.39-19.39 c0.49,0,1.01,0.02,1.6,0.07c0.08,0.01,0.16,0.01,0.24,0.01c0.24,0,0.47-0.03,0.7-0.08H97.95 M97.95,23.96H28.24v0.08 c-0.61-0.05-1.22-0.08-1.85-0.08h0C14.02,23.96,4,33.98,4,46.35v49.61h119.95v-46C123.95,35.6,112.31,23.96,97.95,23.96 L97.95,23.96z" style="fill:#444444;"/>
    </g>
    <g>
      <linearGradient id="SVGID_7_" gradientTransform="matrix(0 1 -1 0 126 -6)" gradientUnits="userSpaceOnUse" x1="75.3608" x2="75.3608" y1="15.5" y2="67.5024">
        <stop offset="0.2273" style="stop-color:#EF5350"/>
        <stop offset="0.7827" style="stop-color:#E53935"/>
      </linearGradient>
      <path d="M118.76,78.39V60.33c0-3.31-2.69-6-6-6H109c-0.18,0-0.36,0.01-0.53,0.03H65.91 c-1.37,0-2.49,1.11-2.49,2.49v5.02c0,1.37,1.11,2.49,2.49,2.49H103v14.04c0,3.31,2.69,6,6,6h3.76 C116.07,84.39,118.76,81.71,118.76,78.39z" style="fill:url(#SVGID_7_);"/>
      <g style="opacity:0.2;">
        <path d="M112.76,56.33c2.21,0,4,1.79,4,4v18.07c0,2.21-1.79,4-4,4H109c-2.21,0-4-1.79-4-4V64.35 c0-1.1-0.9-2-2-2H65.91c-0.27,0-0.49-0.22-0.49-0.49v-5.02c0-0.27,0.22-0.49,0.49-0.49h42.56c0.06,0,0.12,0,0.18-0.01 c0.12-0.01,0.24-0.02,0.36-0.02H112.76 M112.76,54.33H109c-0.18,0-0.36,0.01-0.53,0.03H65.91c-1.37,0-2.49,1.11-2.49,2.49v5.02 c0,1.37,1.11,2.49,2.49,2.49H103v14.04c0,3.31,2.69,6,6,6h3.76c3.31,0,6-2.69,6-6V60.33C118.76,57.01,116.07,54.33,112.76,54.33 L112.76,54.33z" style="fill:#444444;"/>
      </g>
      <radialGradient id="SVGID_8_" cx="63.8541" cy="56.1682" gradientUnits="userSpaceOnUse" r="14.9288">
        <stop offset="0" style="stop-color:#ECEFF1"/>
        <stop offset="0.6718" style="stop-color:#B0BEC5"/>
      </radialGradient>
      <circle cx="66.85" cy="59.42" r="9" style="fill:url(#SVGID_8_);"/>
      <g style="opacity:0.2;">
        <path d="M66.85,52.42c3.86,0,7,3.14,7,7s-3.14,7-7,7c-3.86,0-7-3.14-7-7S62.99,52.42,66.85,52.42 M66.85,50.42c-4.97,0-9,4.03-9,9s4.03,9,9,9c4.97,0,9-4.03,9-9S71.82,50.42,66.85,50.42L66.85,50.42z" style="fill:#444444;"/>
      </g>
    </g>
  </g>
  <g id="レイヤー_1" style="display:none;">
    <g style="display:inline;">
      <g style="opacity:0.6;">
        <circle cx="64" cy="64" r="28" style="opacity:0.61;fill:none;stroke:#000000;stroke-width:0.2625;stroke-miterlimit:10;"/>
        <line style="opacity:0.61;fill:none;stroke:#000000;stroke-width:0.25;stroke-miterlimit:10;" x1="84" x2="84" y1="0" y2="128"/>
        <line style="opacity:0.61;fill:none;stroke:#000000;stroke-width:0.25;stroke-miterlimit:10;" x1="44" x2="44" y1="0" y2="128"/>
        <line style="opacity:0.61;fill:none;stroke:#000000;stroke-width:0.25;stroke-miterlimit:10;" x1="64" x2="64" y1="0" y2="128"/>
        <line style="opacity:0.61;fill:none;stroke:#000000;stroke-width:0.25;stroke-miterlimit:10;" x1="128" x2="0" y1="64" y2="64"/>
        <line style="opacity:0.61;fill:none;stroke:#000000;stroke-width:0.25;stroke-miterlimit:10;" x1="128" x2="0" y1="44" y2="44"/>
        <line style="opacity:0.61;fill:none;stroke:#000000;stroke-width:0.25;stroke-miterlimit:10;" x1="128" x2="0" y1="83.75" y2="83.75"/>
        <line style="opacity:0.61;fill:none;stroke:#000000;stroke-width:0.25;stroke-miterlimit:10;" x1="128" x2="0" y1="128" y2="0"/>
        <line style="opacity:0.61;fill:none;stroke:#000000;stroke-width:0.25;stroke-miterlimit:10;" x1="0" x2="128" y1="128" y2="0"/>
        <g style="opacity:0.61;">
          <path d="M64,4.26c32.94,0,59.74,26.8,59.74,59.74S96.94,123.74,64,123.74S4.26,96.94,4.26,64S31.06,4.26,64,4.26 M64,4 C30.86,4,4,30.86,4,64s26.86,60,60,60s60-26.86,60-60S97.14,4,64,4L64,4z"/>
        </g>
        <path d="M107.97,115.97H20.03 c-4.42,0-8.03-3.61-8.03-8.03V20.03c0-4.42,3.61-8.03,8.03-8.03h87.94c4.42,0,8.03,3.61,8.03,8.03v87.91 C116,112.36,112.39,115.97,107.97,115.97z" style="opacity:0.61;fill:none;stroke:#000000;stroke-width:0.2578;stroke-miterlimit:10;"/>
        <path d="M100,124H28c-4.4,0-8-3.6-8-8 V12c0-4.4,3.6-8,8-8h72c4.4,0,8,3.6,8,8v104C108,120.4,104.4,124,100,124z" style="opacity:0.61;fill:none;stroke:#000000;stroke-width:0.2628;stroke-miterlimit:10;"/>
        <path d="M113.77,108H14.23 C8.6,108,4,103.4,4,97.77V30.28c0-5.63,4.6-10.23,10.23-10.23h99.54c5.63,0,10.23,4.6,10.23,10.23v67.48 C124,103.4,119.4,108,113.77,108z" style="opacity:0.61;fill:none;stroke:#000000;stroke-width:0.2627;stroke-miterlimit:10;"/>
      </g>
      <g>
        <g style="opacity:0.2;">
          <defs>
            <rect id="SVGID_4_" height="128" style="opacity:0.2;" width="128" x="0" y="0"/>
          </defs>
          <clipPath id="SVGID_9_">
            <use style="overflow:visible;" xlink:href="#SVGID_4_"/>
          </clipPath>
          <g style="clip-path:url(#SVGID_9_);">
            <g>
              <line style="fill:none;stroke:#000000;stroke-width:0.25;stroke-miterlimit:10;" x1="-28" x2="-28" y1="160" y2="-32"/>
              <line style="fill:none;stroke:#000000;stroke-width:0.25;stroke-miterlimit:10;" x1="-24" x2="-24" y1="160" y2="-32"/>
              <line style="fill:none;stroke:#000000;stroke-width:0.25;stroke-miterlimit:10;" x1="-20" x2="-20" y1="160" y2="-32"/>
              <line style="fill:none;stroke:#000000;stroke-width:0.25;stroke-miterlimit:10;" x1="-16" x2="-16" y1="160" y2="-32"/>
              <line style="fill:none;stroke:#000000;stroke-width:0.25;stroke-miterlimit:10;" x1="-12" x2="-12" y1="160" y2="-32"/>
              <line style="fill:none;stroke:#000000;stroke-width:0.25;stroke-miterlimit:10;" x1="-8" x2="-8" y1="160" y2="-32"/>
              <line style="fill:none;stroke:#000000;stroke-width:0.25;stroke-miterlimit:10;" x1="-4" x2="-4" y1="160" y2="-32"/>
              <line style="fill:none;stroke:#000000;stroke-width:0.25;stroke-miterlimit:10;" x1="0" x2="0" y1="160" y2="-32"/>
              <line style="fill:none;stroke:#000000;stroke-width:0.25;stroke-miterlimit:10;" x1="4" x2="4" y1="160" y2="-32"/>
              <line style="fill:none;stroke:#000000;stroke-width:0.25;stroke-miterlimit:10;" x1="8" x2="8" y1="160" y2="-32"/>
              <line style="fill:none;stroke:#000000;stroke-width:0.25;stroke-miterlimit:10;" x1="12" x2="12" y1="160" y2="-32"/>
              <line style="fill:none;stroke:#000000;stroke-width:0.25;stroke-miterlimit:10;" x1="16" x2="16" y1="160" y2="-32"/>
              <line style="fill:none;stroke:#000000;stroke-width:0.25;stroke-miterlimit:10;" x1="20" x2="20" y1="160" y2="-32"/>
              <line style="fill:none;stroke:#000000;stroke-width:0.25;stroke-miterlimit:10;" x1="24" x2="24" y1="160" y2="-32"/>
              <line style="fill:none;stroke:#000000;stroke-width:0.25;stroke-miterlimit:10;" x1="28" x2="28" y1="160" y2="-32"/>
              <line style="fill:none;stroke:#000000;stroke-width:0.25;stroke-miterlimit:10;" x1="32" x2="32" y1="160" y2="-32"/>
              <line style="fill:none;stroke:#000000;stroke-width:0.25;stroke-miterlimit:10;" x1="36" x2="36" y1="160" y2="-32"/>
              <line style="fill:none;stroke:#000000;stroke-width:0.25;stroke-miterlimit:10;" x1="40" x2="40" y1="160" y2="-32"/>
              <line style="fill:none;stroke:#000000;stroke-width:0.25;stroke-miterlimit:10;" x1="44" x2="44" y1="160" y2="-32"/>
              <line style="fill:none;stroke:#000000;stroke-width:0.25;stroke-miterlimit:10;" x1="48" x2="48" y1="160" y2="-32"/>
              <line style="fill:none;stroke:#000000;stroke-width:0.25;stroke-miterlimit:10;" x1="52" x2="52" y1="160" y2="-32"/>
              <line style="fill:none;stroke:#000000;stroke-width:0.25;stroke-miterlimit:10;" x1="56" x2="56" y1="160" y2="-32"/>
              <line style="fill:none;stroke:#000000;stroke-width:0.25;stroke-miterlimit:10;" x1="60" x2="60" y1="160" y2="-32"/>
              <line style="fill:none;stroke:#000000;stroke-width:0.25;stroke-miterlimit:10;" x1="64" x2="64" y1="160" y2="-32"/>
              <line style="fill:none;stroke:#000000;stroke-width:0.25;stroke-miterlimit:10;" x1="68" x2="68" y1="160" y2="-32"/>
              <line style="fill:none;stroke:#000000;stroke-width:0.25;stroke-miterlimit:10;" x1="72" x2="72" y1="160" y2="-32"/>
              <line style="fill:none;stroke:#000000;stroke-width:0.25;stroke-miterlimit:10;" x1="76" x2="76" y1="160" y2="-32"/>
              <line style="fill:none;stroke:#000000;stroke-width:0.25;stroke-miterlimit:10;" x1="80" x2="80" y1="160" y2="-32"/>
              <line style="fill:none;stroke:#000000;stroke-width:0.25;stroke-miterlimit:10;" x1="84" x2="84" y1="160" y2="-32"/>
              <line style="fill:none;stroke:#000000;stroke-width:0.25;stroke-miterlimit:10;" x1="88" x2="88" y1="160" y2="-32"/>
              <line style="fill:none;stroke:#000000;stroke-width:0.25;stroke-miterlimit:10;" x1="92" x2="92" y1="160" y2="-32"/>
              <line style="fill:none;stroke:#000000;stroke-width:0.25;stroke-miterlimit:10;" x1="96" x2="96" y1="160" y2="-32"/>
              <line style="fill:none;stroke:#000000;stroke-width:0.25;stroke-miterlimit:10;" x1="100" x2="100" y1="160" y2="-32"/>
              <line style="fill:none;stroke:#000000;stroke-width:0.25;stroke-miterlimit:10;" x1="104" x2="104" y1="160" y2="-32"/>
              <line style="fill:none;stroke:#000000;stroke-width:0.25;stroke-miterlimit:10;" x1="108" x2="108" y1="160" y2="-32"/>
              <line style="fill:none;stroke:#000000;stroke-width:0.25;stroke-miterlimit:10;" x1="112" x2="112" y1="160" y2="-32"/>
              <line style="fill:none;stroke:#000000;stroke-width:0.25;stroke-miterlimit:10;" x1="116" x2="116" y1="160" y2="-32"/>
              <line style="fill:none;stroke:#000000;stroke-width:0.25;stroke-miterlimit:10;" x1="120" x2="120" y1="160" y2="-32"/>
              <line style="fill:none;stroke:#000000;stroke-width:0.25;stroke-miterlimit:10;" x1="124" x2="124" y1="160" y2="-32"/>
              <line style="fill:none;stroke:#000000;stroke-width:0.25;stroke-miterlimit:10;" x1="128" x2="128" y1="160" y2="-32"/>
              <line style="fill:none;stroke:#000000;stroke-width:0.25;stroke-miterlimit:10;" x1="132" x2="132" y1="160" y2="-32"/>
              <line style="fill:none;stroke:#000000;stroke-width:0.25;stroke-miterlimit:10;" x1="136" x2="136" y1="160" y2="-32"/>
              <line style="fill:none;stroke:#000000;stroke-width:0.25;stroke-miterlimit:10;" x1="137" x2="137" y1="166.05" y2="-25.95"/>
              <line style="fill:none;stroke:#000000;stroke-width:0.25;stroke-miterlimit:10;" x1="144" x2="144" y1="160" y2="-32"/>
              <line style="fill:none;stroke:#000000;stroke-width:0.25;stroke-miterlimit:10;" x1="148" x2="148" y1="160" y2="-32"/>
              <line style="fill:none;stroke:#000000;stroke-width:0.25;stroke-miterlimit:10;" x1="152" x2="152" y1="160" y2="-32"/>
              <line style="fill:none;stroke:#000000;stroke-width:0.25;stroke-miterlimit:10;" x1="156" x2="156" y1="160" y2="-32"/>
            </g>
            <g>
              <line style="fill:none;stroke:#000000;stroke-width:0.25;stroke-miterlimit:10;" x1="-32" x2="160" y1="-28" y2="-28"/>
              <line style="fill:none;stroke:#000000;stroke-width:0.25;stroke-miterlimit:10;" x1="-32" x2="160" y1="-24" y2="-24"/>
              <line style="fill:none;stroke:#000000;stroke-width:0.25;stroke-miterlimit:10;" x1="-32" x2="160" y1="-20" y2="-20"/>
              <line style="fill:none;stroke:#000000;stroke-width:0.25;stroke-miterlimit:10;" x1="-32" x2="160" y1="-16" y2="-16"/>
              <line style="fill:none;stroke:#000000;stroke-width:0.25;stroke-miterlimit:10;" x1="-32" x2="160" y1="-12" y2="-12"/>
              <line style="fill:none;stroke:#000000;stroke-width:0.25;stroke-miterlimit:10;" x1="-32" x2="160" y1="-8" y2="-8"/>
              <line style="fill:none;stroke:#000000;stroke-width:0.25;stroke-miterlimit:10;" x1="-32" x2="160" y1="-4" y2="-4"/>
              <line style="fill:none;stroke:#000000;stroke-width:0.25;stroke-miterlimit:10;" x1="-32" x2="160" y1="0" y2="0"/>
              <line style="fill:none;stroke:#000000;stroke-width:0.25;stroke-miterlimit:10;" x1="-32" x2="160" y1="4" y2="4"/>
              <line style="fill:none;stroke:#000000;stroke-width:0.25;stroke-miterlimit:10;" x1="-32" x2="160" y1="8" y2="8"/>
              <line style="fill:none;stroke:#000000;stroke-width:0.25;stroke-miterlimit:10;" x1="-32" x2="160" y1="12" y2="12"/>
              <line style="fill:none;stroke:#000000;stroke-width:0.25;stroke-miterlimit:10;" x1="-32" x2="160" y1="16" y2="16"/>
              <line style="fill:none;stroke:#000000;stroke-width:0.25;stroke-miterlimit:10;" x1="-32" x2="160" y1="20" y2="20"/>
              <line style="fill:none;stroke:#000000;stroke-width:0.25;stroke-miterlimit:10;" x1="-32" x2="160" y1="24" y2="24"/>
              <line style="fill:none;stroke:#000000;stroke-width:0.25;stroke-miterlimit:10;" x1="-32" x2="160" y1="28" y2="28"/>
              <line style="fill:none;stroke:#000000;stroke-width:0.25;stroke-miterlimit:10;" x1="-32" x2="160" y1="32" y2="32"/>
              <line style="fill:none;stroke:#000000;stroke-width:0.25;stroke-miterlimit:10;" x1="-32" x2="160" y1="36" y2="36"/>
              <line style="fill:none;stroke:#000000;stroke-width:0.25;stroke-miterlimit:10;" x1="-32" x2="160" y1="40" y2="40"/>
              <line style="fill:none;stroke:#000000;stroke-width:0.25;stroke-miterlimit:10;" x1="-32" x2="160" y1="44" y2="44"/>
              <line style="fill:none;stroke:#000000;stroke-width:0.25;stroke-miterlimit:10;" x1="-32" x2="160" y1="48" y2="48"/>
              <line style="fill:none;stroke:#000000;stroke-width:0.25;stroke-miterlimit:10;" x1="-32" x2="160" y1="52" y2="52"/>
              <line style="fill:none;stroke:#000000;stroke-width:0.25;stroke-miterlimit:10;" x1="-32" x2="160" y1="56" y2="56"/>
              <line style="fill:none;stroke:#000000;stroke-width:0.25;stroke-miterlimit:10;" x1="-32" x2="160" y1="60" y2="60"/>
              <line style="fill:none;stroke:#000000;stroke-width:0.25;stroke-miterlimit:10;" x1="-32" x2="160" y1="64" y2="64"/>
              <line style="fill:none;stroke:#000000;stroke-width:0.25;stroke-miterlimit:10;" x1="-32" x2="160" y1="68" y2="68"/>
              <line style="fill:none;stroke:#000000;stroke-width:0.25;stroke-miterlimit:10;" x1="-32" x2="160" y1="72" y2="72"/>
              <line style="fill:none;stroke:#000000;stroke-width:0.25;stroke-miterlimit:10;" x1="-32" x2="160" y1="76" y2="76"/>
              <line style="fill:none;stroke:#000000;stroke-width:0.25;stroke-miterlimit:10;" x1="-32" x2="160" y1="80" y2="80"/>
              <line style="fill:none;stroke:#000000;stroke-width:0.25;stroke-miterlimit:10;" x1="-32" x2="160" y1="84" y2="84"/>
              <line style="fill:none;stroke:#000000;stroke-width:0.25;stroke-miterlimit:10;" x1="-32" x2="160" y1="88" y2="88"/>
              <line style="fill:none;stroke:#000000;stroke-width:0.25;stroke-miterlimit:10;" x1="-32" x2="160" y1="92" y2="92"/>
              <line style="fill:none;stroke:#000000;stroke-width:0.25;stroke-miterlimit:10;" x1="-32" x2="160" y1="96" y2="96"/>
              <line style="fill:none;stroke:#000000;stroke-width:0.25;stroke-miterlimit:10;" x1="-32" x2="160" y1="100" y2="100"/>
              <line style="fill:none;stroke:#000000;stroke-width:0.25;stroke-miterlimit:10;" x1="-32" x2="160" y1="104" y2="104"/>
              <line style="fill:none;stroke:#000000;stroke-width:0.25;stroke-miterlimit:10;" x1="-32" x2="160" y1="108" y2="108"/>
              <line style="fill:none;stroke:#000000;stroke-width:0.25;stroke-miterlimit:10;" x1="-32" x2="160" y1="112" y2="112"/>
              <line style="fill:none;stroke:#000000;stroke-width:0.25;stroke-miterlimit:10;" x1="-32" x2="160" y1="116" y2="116"/>
              <line style="fill:none;stroke:#000000;stroke-width:0.25;stroke-miterlimit:10;" x1="-32" x2="160" y1="120" y2="120"/>
              <line style="fill:none;stroke:#000000;stroke-width:0.25;stroke-miterlimit:10;" x1="-32" x2="160" y1="124" y2="124"/>
              <line style="fill:none;stroke:#000000;stroke-width:0.25;stroke-miterlimit:10;" x1="-32" x2="160" y1="128" y2="128"/>
              <line style="fill:none;stroke:#000000;stroke-width:0.25;stroke-miterlimit:10;" x1="-32" x2="160" y1="132" y2="132"/>
              <line style="fill:none;stroke:#000000;stroke-width:0.25;stroke-miterlimit:10;" x1="-32" x2="160" y1="136" y2="136"/>
              <line style="fill:none;stroke:#000000;stroke-width:0.25;stroke-miterlimit:10;" x1="-32" x2="160" y1="140" y2="140"/>
              <line style="fill:none;stroke:#000000;stroke-width:0.25;stroke-miterlimit:10;" x1="-32" x2="160" y1="144" y2="144"/>
              <line style="fill:none;stroke:#000000;stroke-width:0.25;stroke-miterlimit:10;" x1="-32" x2="160" y1="148" y2="148"/>
              <line style="fill:none;stroke:#000000;stroke-width:0.25;stroke-miterlimit:10;" x1="-32" x2="160" y1="152" y2="152"/>
              <line style="fill:none;stroke:#000000;stroke-width:0.25;stroke-miterlimit:10;" x1="-32" x2="160" y1="156" y2="156"/>
            </g>
            <path d="M159.75-31.75v191.5h-191.5v-191.5H159.75 M160-32H-32v192h192V-32L160-32z"/>
          </g>
        </g>
        <g>
          <rect height="128" style="opacity:0.3;fill:#EF4438;" width="4" x="0" y="0"/>
          <rect height="128" style="opacity:0.3;fill:#EF4438;" width="4" x="124" y="0"/>
          <rect height="120" style="opacity:0.3;fill:#EF4438;" transform="matrix(-1.836970e-16 1 -1 -1.836970e-16 66 -62)" width="4" x="62" y="-58"/>
          <rect height="120" style="opacity:0.3;fill:#EF4438;" transform="matrix(-1.836970e-16 1 -1 -1.836970e-16 190 62)" width="4" x="62" y="66"/>
        </g>
      </g>
    </g>
  </g>
</svg>
